icons/filled/circle-arrow-up-right.svg

<svg xmlns="http://www.w3.org/2000/svg" width="24" height="24" viewBox="0 0 24 24" fill="currentColor"><path d="M17 3.34a10 10 0 1 1 -14.995 8.984l-.005 -.324l.005 -.324a10 10 0 0 1 14.995 -8.336zm-2 4.66h-6l-.117 .007a1 1 0 0 0 -.883 .993l.007 .117a1 1 0 0 0 .993 .883h3.584l-4.291 4.293l-.083 .094a1 1 0 0 0 1.497 1.32l4.293 -4.293v3.586l.007 .117a1 1 0 0 0 1.993 -.117v-6l-.007 -.117l-.029 -.149l-.035 -.105l-.054 -.113l-.071 -.111a1.01 1.01 0 0 0 -.097 -.112l-.09 -.08l-.096 -.067l-.098 -.052l-.11 -.044l-.112 -.03l-.126 -.017l-.075 -.003z"/></svg>

<svg xmlns="http://www.w3.org/2000/svg" width="24" height="24" fill="currentColor"><path d="M17 3.34a10 10 0 1 1-14.995 8.984L2 12l.005-.324A10 10 0 0 1 17 3.34M15 8H9l-.117.007A1 1 0 0 0 8 9l.007.117A1 1 0 0 0 9 10h3.584l-4.291 4.293-.083.094a1 1 0 0 0 1.497 1.32L14 11.414V15l.007.117A1 1 0 0 0 16 15V9l-.007-.117-.029-.149-.035-.105-.054-.113-.071-.111a1 1 0 0 0-.097-.112l-.09-.08-.096-.067-.098-.052-.11-.044-.112-.03-.126-.017z"/></svg>
